;FLAVOR:Marlin
;TIME:29066
;Filament used: 29.7114m
;Layer height: 0.28
;MINX:14.536
;MINY:79.836
;MINZ:0.336
;MAXX:220.464
;MAXY:155.164
;MAXZ:33.006
;Generated with Cura_SteamEngine 4.9.0
M140 S80
M105
M190 S80
M104 S220
M105
M109 S220
M82 ;absolute extrusion mode
; Ender 3 Custom Start G-code
G92 E0 ; Reset Extruder
G28 ; Home all axes
G1 Z2.0 F3000 ; Move Z Axis up little to prevent scratching of Heat Bed
G1 X0.1 Y20 Z0.3 F5000.0 ; Move to start position
G1 X0.1 Y200.0 Z0.3 F1500.0 E15 ; Draw the first line
G1 X0.4 Y200.0 Z0.3 F5000.0 ; Move to side a little
G1 X0.4 Y20 Z0.3 F1500.0 E30 ; Draw the second line
G92 E0 ; Reset Extruder
G1 Z2.0 F3000 ; Move Z Axis up little to prevent scratching of Heat Bed
G1 X5 Y20 Z0.3 F5000.0 ; Move over to prevent blob squish
G92 E0
G92 E0
G1 F2700 E-5
;LAYER_COUNT:114
;LAYER:-5
M107
G0 F9000 X26.28 Y83.473 Z0.336
;TYPE:SUPPORT-INTERFACE
G1 F2700 E0
G1 F1125 X26.444 Y83.427 E0.01903
G1 X27.316 Y83.215 E0.11932
G1 X27.478 Y83.182 E0.1378
G1 X28.371 Y83.034 E0.23896
G1 X28.548 Y83.011 E0.2589
G1 X29.442 Y82.928 E0.35924
G1 X29.584 Y82.921 E0.37513
G1 X30.325 Y82.9 E0.45797
G1 X180.133 Y82.9 E17.19962
G1 X180.801 Y82.858 E17.27442
G1 X181.472 Y82.729 E17.35078
G1 X182.116 Y82.518 E17.42652
G1 X182.496 Y82.35 E17.47295
G1 X182.807 Y82.197 E17.51168
G1 X182.919 Y82.147 E17.52539
G1 X183.769 Y81.804 E17.62782
G1 X183.942 Y81.742 E17.64836
G1 X184.78 Y81.473 E17.74672
G1 X184.944 Y81.427 E17.76575
G1 X185.816 Y81.215 E17.86604
G1 X185.978 Y81.182 E17.88452
G1 X186.871 Y81.034 E17.98567
G1 X187.048 Y81.011 E18.00562
G1 X187.942 Y80.928 E18.10596
G1 X188.084 Y80.921 E18.12185
G1 X188.825 Y80.9 E18.20469
G1 X204.686 Y80.901 E19.97722
G1 X205.687 Y80.937 E20.08916
G1 X205.81 Y80.946 E20.10294
G1 X206.727 Y81.048 E20.20605
G1 X206.902 Y81.073 E20.22581
G1 X207.791 Y81.237 E20.32683
G1 X207.914 Y81.265 E20.34093
G1 X208.808 Y81.499 E20.4442
G1 X208.971 Y81.548 E20.46323
G1 X209.813 Y81.834 E20.5626
G1 X209.979 Y81.898 E20.58248
G1 X210.782 Y82.239 E20.67998
G1 X210.971 Y82.327 E20.70328
G1 X211.765 Y82.735 E20.80304
G1 X211.882 Y82.802 E20.81811
G1 X212.661 Y83.276 E20.92001
G1 X212.812 Y83.376 E20.94025
G1 X213.526 Y83.887 E21.03838
G1 X213.674 Y84 E21.05918
G1 X214.366 Y84.577 E21.15987
G1 X214.474 Y84.673 E21.17602
G1 X214.986 Y85.155 E21.25461
G1 X215.105 Y85.274 E21.27341
G1 X215.788 Y86.008 E21.38546
G1 X215.907 Y86.147 E21.40591
G1 X216.453 Y86.828 E21.50345
G1 X216.567 Y86.98 E21.52469
G1 X217.057 Y87.692 E21.62128
G1 X217.174 Y87.876 E21.64565
G1 X217.617 Y88.632 E21.74357
G1 X217.694 Y88.774 E21.76162
G1 X218.097 Y89.593 E21.86363
G1 X218.153 Y89.719 E21.87904
G1 X218.495 Y90.564 E21.98091
G1 X218.554 Y90.729 E22.00049
G1 X218.826 Y91.576 E22.09991
G1 X218.872 Y91.738 E22.11873
G1 X219.084 Y92.612 E22.21924
G1 X219.117 Y92.77 E22.23727
G1 X219.265 Y93.662 E22.33832
G1 X219.289 Y93.848 E22.35928
G1 X219.371 Y94.732 E22.45849
G1 X219.379 Y94.884 E22.4755
G1 X219.4 Y95.617 E22.55745
G1 X219.4 Y97.369 E22.75325
G1 X219.364 Y98.375 E22.86574
G1 X219.354 Y98.51 E22.88087
G1 X219.252 Y99.427 E22.98398
G1 X219.227 Y99.602 E23.00374
G1 X219.065 Y100.48 E23.10351
G1 X219.035 Y100.614 E23.11886
G1 X218.804 Y101.499 E23.22108
G1 X218.752 Y101.671 E23.24116
G1 X218.466 Y102.513 E23.34053
G1 X218.402 Y102.679 E23.36042
G1 X218.061 Y103.482 E23.45791
G1 X217.98 Y103.657 E23.47946
G1 X217.565 Y104.465 E23.58097
G1 X217.498 Y104.582 E23.59604
G1 X217.024 Y105.361 E23.69794
G1 X216.924 Y105.512 E23.71818
G1 X216.413 Y106.226 E23.81631
G1 X216.3 Y106.374 E23.83712
G1 X215.723 Y107.066 E23.93781
G1 X215.627 Y107.174 E23.95395
G1 X215.065 Y107.768 E24.04534
G1 X214.632 Y108.28 E24.12028
G1 X214.261 Y108.852 E24.19647
G1 X213.964 Y109.468 E24.27289
G1 X213.748 Y110.115 E24.34912
G1 X213.615 Y110.785 E24.42546
G1 X213.567 Y111.466 E24.50175
G1 X213.606 Y112.148 E24.57809
G1 X213.731 Y112.82 E24.65448
G1 X213.939 Y113.47 E24.73075
G1 X214.228 Y114.088 E24.80699
G1 X214.593 Y114.666 E24.88338
G1 X215.051 Y115.218 E24.96354
G1 X215.161 Y115.333 E24.98132
G1 X215.788 Y116.008 E25.08428
G1 X215.907 Y116.147 E25.10473
G1 X216.461 Y116.838 E25.20371
G1 X216.565 Y116.977 E25.22311
G1 X217.057 Y117.692 E25.3201
G1 X217.174 Y117.876 E25.34447
G1 X217.617 Y118.632 E25.44239
G1 X217.694 Y118.774 E25.46044
G1 X218.097 Y119.593 E25.56245
G1 X218.153 Y119.719 E25.57786
G1 X218.495 Y120.564 E25.67973
G1 X218.554 Y120.729 E25.69932
G1 X218.826 Y121.576 E25.79873
G1 X218.872 Y121.738 E25.81755
G1 X219.084 Y122.612 E25.91806
G1 X219.117 Y122.77 E25.9361
G1 X219.265 Y123.662 E26.03714
G1 X219.289 Y123.848 E26.0581
G1 X219.371 Y124.732 E26.15732
G1 X219.379 Y124.884 E26.17433
G1 X219.4 Y125.617 E26.25628
G1 X219.399 Y127.417 E26.45743
G1 X219.394 Y127.565 E26.47398
G1 X219.392 Y127.829 E26.50349
G1 X219.4 Y128.356 E26.56239
G1 X219.4 Y134.678 E27.2689
G1 X219.391 Y134.931 E27.29719
G1 X219.39 Y135.266 E27.33463
G1 X219.4 Y135.617 E27.37387
G1 X219.4 Y137.369 E27.56966
G1 X219.364 Y138.375 E27.68216
G1 X219.354 Y138.51 E27.69728
G1 X219.252 Y139.427 E27.8004
G1 X219.227 Y139.602 E27.82015
G1 X219.065 Y140.48 E27.91993
G1 X219.035 Y140.614 E27.93527
G1 X218.804 Y141.499 E28.03749
G1 X218.752 Y141.671 E28.05757
G1 X218.466 Y142.513 E28.15695
G1 X218.402 Y142.679 E28.17683
G1 X218.061 Y143.482 E28.27432
G1 X217.98 Y143.657 E28.29587
G1 X217.565 Y144.465 E28.39738
G1 X217.498 Y144.582 E28.41245
G1 X217.024 Y145.361 E28.51436
G1 X216.924 Y145.512 E28.5346
G1 X216.413 Y146.226 E28.63272
G1 X216.305 Y146.368 E28.65266
G1 X215.723 Y147.066 E28.75422
G1 X215.627 Y147.174 E28.77037
G1 X215.145 Y147.686 E28.84895
G1 X214.988 Y147.842 E28.87369
G1 X214.292 Y148.488 E28.97981
G1 X214.153 Y148.607 E29.00026
G1 X213.462 Y149.161 E29.09923
G1 X213.323 Y149.265 E29.11863
G1 X212.608 Y149.757 E29.21563
G1 X212.424 Y149.874 E29.23999
G1 X211.668 Y150.317 E29.33792
G1 X211.526 Y150.394 E29.35597
G1 X210.698 Y150.801 E29.45908
G1 X210.581 Y150.853 E29.47338
G1 X209.726 Y151.198 E29.57642
G1 X209.563 Y151.256 E29.59575
G1 X208.72 Y151.527 E29.69471
G1 X208.556 Y151.573 E29.71375
G1 X207.684 Y151.785 E29.81403
G1 X207.522 Y151.818 E29.83251
G1 X206.629 Y151.966 E29.93367
G1 X206.452 Y151.989 E29.95361
G1 X205.558 Y152.072 E30.05395
G1 X205.416 Y152.079 E30.06984
G1 X204.675 Y152.1 E30.15268
G1 X54.867 Y152.1 E46.89434
G1 X54.199 Y152.142 E46.96913
G1 X53.528 Y152.271 E47.04549
G1 X52.884 Y152.482 E47.12123
G1 X52.504 Y152.65 E47.16766
G1 X52.193 Y152.803 E47.20639
G1 X52.081 Y152.853 E47.2201
G1 X51.226 Y153.198 E47.32314
G1 X51.063 Y153.256 E47.34247
G1 X50.22 Y153.527 E47.44143
G1 X50.056 Y153.573 E47.46046
G1 X49.184 Y153.785 E47.56075
G1 X49.022 Y153.818 E47.57923
G1 X48.129 Y153.966 E47.68038
G1 X47.952 Y153.989 E47.70033
G1 X47.058 Y154.072 E47.80067
G1 X46.916 Y154.079 E47.81656
G1 X46.175 Y154.1 E47.8994
G1 X30.314 Y154.099 E49.67193
G1 X29.313 Y154.063 E49.78387
G1 X29.19 Y154.054 E49.79765
G1 X28.273 Y153.952 E49.90076
G1 X28.098 Y153.927 E49.92052
G1 X27.209 Y153.763 E50.02154
G1 X27.086 Y153.735 E50.03564
G1 X26.192 Y153.501 E50.13892
G1 X26.029 Y153.452 E50.15794
G1 X25.187 Y153.166 E50.25731
G1 X25.021 Y153.102 E50.2772
G1 X24.218 Y152.761 E50.37469
G1 X24.029 Y152.673 E50.39799
G1 X23.235 Y152.265 E50.49775
G1 X23.118 Y152.198 E50.51282
G1 X22.339 Y151.724 E50.61472
G1 X22.188 Y151.624 E50.63496
G1 X21.462 Y151.105 E50.7347
G1 X21.327 Y151.001 E50.75374
G1 X20.623 Y150.414 E50.85618
G1 X20.526 Y150.327 E50.87074
G1 X20.014 Y149.845 E50.94932
G1 X19.854 Y149.684 E50.97469
G1 X19.21 Y148.99 E51.08049
G1 X19.093 Y148.853 E51.10063
G1 X18.539 Y148.162 E51.1996
G1 X18.435 Y148.023 E51.219
G1 X17.943 Y147.308 E51.316
G1 X17.826 Y147.124 E51.34037
G1 X17.383 Y146.368 E51.43829
G1 X17.306 Y146.226 E51.45634
G1 X16.897 Y145.394 E51.55995
G1 X16.847 Y145.281 E51.57376
G1 X16.504 Y144.43 E51.67629
G1 X16.442 Y144.258 E51.69673
G1 X16.17 Y143.411 E51.79614
G1 X16.124 Y143.247 E51.81518
G1 X15.913 Y142.375 E51.91544
G1 X15.88 Y142.214 E51.93381
G1 X15.733 Y141.324 E52.03461
G1 X15.711 Y141.152 E52.05399
G1 X15.628 Y140.253 E52.15489
G1 X15.62 Y140.103 E52.17167
G1 X15.6 Y139.383 E52.25217
G1 X15.6 Y137.631 E52.44796
G1 X15.636 Y136.625 E52.56046
G1 X15.646 Y136.49 E52.57559
G1 X15.748 Y135.573 E52.6787
G1 X15.773 Y135.398 E52.69845
G1 X15.935 Y134.52 E52.79823
G1 X15.965 Y134.386 E52.81357
G1 X16.196 Y133.501 E52.91579
G1 X16.248 Y133.329 E52.93587
G1 X16.534 Y132.487 E53.03525
G1 X16.598 Y132.321 E53.05513
G1 X16.939 Y131.518 E53.15262
G1 X17.02 Y131.343 E53.17417
G1 X17.435 Y130.535 E53.27569
G1 X17.502 Y130.418 E53.29075
G1 X17.976 Y129.639 E53.39266
G1 X18.076 Y129.488 E53.4129
G1 X18.587 Y128.774 E53.51102
G1 X18.7 Y128.626 E53.53183
G1 X19.277 Y127.934 E53.63252
G1 X19.373 Y127.826 E53.64867
G1 X19.935 Y127.232 E53.74005
G1 X20.368 Y126.72 E53.81499
G1 X20.739 Y126.148 E53.89118
G1 X21.036 Y125.532 E53.96761
G1 X21.252 Y124.885 E54.04383
G1 X21.385 Y124.215 E54.12017
G1 X21.433 Y123.534 E54.19646
G1 X21.394 Y122.852 E54.2728
G1 X21.269 Y122.18 E54.34919
G1 X21.061 Y121.53 E54.42546
G1 X20.772 Y120.912 E54.5017
G1 X20.407 Y120.334 E54.5781
G1 X19.949 Y119.782 E54.65825
G1 X19.835 Y119.663 E54.67667
G1 X19.21 Y118.99 E54.77931
G1 X19.093 Y118.853 E54.79944
G1 X18.539 Y118.162 E54.89842
G1 X18.435 Y118.023 E54.91782
G1 X17.943 Y117.308 E55.01482
G1 X17.826 Y117.124 E55.03918
G1 X17.383 Y116.368 E55.13711
G1 X17.306 Y116.226 E55.15516
G1 X16.897 Y115.394 E55.25876
G1 X16.847 Y115.281 E55.27257
G1 X16.499 Y114.42 E55.37636
G1 X16.442 Y114.259 E55.39544
G1 X16.17 Y113.411 E55.49497
G1 X16.124 Y113.247 E55.514
G1 X15.913 Y112.375 E55.61426
G1 X15.88 Y112.214 E55.63263
G1 X15.733 Y111.324 E55.73344
G1 X15.711 Y111.152 E55.75282
G1 X15.628 Y110.253 E55.85371
G1 X15.621 Y110.115 E55.86915
G1 X15.6 Y109.383 E55.95099
G1 X15.601 Y107.583 E56.15215
G1 X15.606 Y107.435 E56.1687
G1 X15.608 Y107.171 E56.1982
G1 X15.6 Y106.644 E56.2571
G1 X15.6 Y100.322 E56.96361
G1 X15.609 Y100.069 E56.9919
G1 X15.61 Y99.734 E57.02934
G1 X15.6 Y99.383 E57.06858
G1 X15.6 Y97.631 E57.26437
G1 X15.636 Y96.625 E57.37687
G1 X15.646 Y96.49 E57.392
G1 X15.748 Y95.573 E57.49511
G1 X15.773 Y95.398 E57.51486
G1 X15.935 Y94.52 E57.61464
G1 X15.965 Y94.386 E57.62999
G1 X16.196 Y93.501 E57.7322
G1 X16.248 Y93.329 E57.75228
G1 X16.534 Y92.487 E57.85166
G1 X16.598 Y92.321 E57.87154
G1 X16.939 Y91.518 E57.96904
G1 X17.02 Y91.343 E57.99059
G1 X17.435 Y90.535 E58.0921
G1 X17.502 Y90.418 E58.10717
G1 X17.976 Y89.639 E58.20907
G1 X18.076 Y89.488 E58.22931
G1 X18.587 Y88.774 E58.32743
G1 X18.7 Y88.626 E58.34824
G1 X19.277 Y87.934 E58.44893
G1 X19.373 Y87.826 E58.46508
G1 X19.855 Y87.314 E58.54367
G1 X20.012 Y87.158 E58.5684
G1 X20.708 Y86.512 E58.67452
G1 X20.847 Y86.393 E58.69497
G1 X21.538 Y85.839 E58.79395
G1 X21.677 Y85.735 E58.81335
G1 X22.392 Y85.243 E58.91034
G1 X22.576 Y85.126 E58.93471
G1 X23.332 Y84.683 E59.03263
G1 X23.474 Y84.606 E59.05068
G1 X24.306 Y84.197 E59.15429
G1 X24.419 Y84.147 E59.1681
G1 X25.274 Y83.802 E59.27113
G1 X25.441 Y83.742 E59.29096
G1 X26.28 Y83.473 E59.38943
G0 F9000 X25.6 Y83.691
G1 F1125 X25.6 Y153.306 E67.16919
G0 F9000 X27.2 Y153.76
G1 F1125 X27.2 Y83.243 E75.04975
G0 F9000 X28.8 Y82.987
G1 F1125 X28.8 Y154.01 E82.98685
G0 F9000 X30.4 Y154.099
G1 F1125 X30.4 Y82.9 E90.94363
G0 F9000 X32 Y82.9
G1 F1125 X32 Y154.099 E98.90041
G0 F9000 X33.6 Y154.099
G1 F1125 X33.6 Y82.9 E106.85719
G0 F9000 X35.2 Y82.9
G1 F1125 X35.2 Y154.099 E114.81396
G0 F9000 X36.8 Y154.099
G1 F1125 X36.8 Y82.9 E122.77074
G0 F9000 X38.4 Y82.9
G1 F1125 X38.4 Y154.099 E130.72752
G0 F9000 X40 Y154.099
G1 F1125 X40 Y82.9 E138.68429
G0 F9000 X41.6 Y82.9
G1 F1125 X41.6 Y154.099 E146.64107
G0 F9000 X43.2 Y154.099
G1 F1125 X43.2 Y82.9 E154.59785
G0 F9000 X44.8 Y82.9
G1 F1125 X44.8 Y154.099 E162.55462
G0 F9000 X46.4 Y154.094
G1 F1125 X46.4 Y82.9 E170.51084
G0 F9000 X48 Y82.9
G1 F1125 X48 Y153.983 E178.45466
G0 F9000 X49.6 Y153.684
G1 F1125 X49.6 Y82.9 E186.36505
G0 F9000 X51.2 Y82.9
G1 F1125 X51.2 Y153.208 E194.22226
G0 F9000 X52.8 Y152.52
G1 F1125 X52.8 Y82.9 E202.00258
G0 F9000 X54.4 Y82.9
G1 F1125 X54.4 Y152.13 E209.73931
G0 F9000 X56 Y152.1
G1 F1125 X56 Y82.9 E217.47269
G0 F9000 X57.6 Y82.9
G1 F1125 X57.6 Y152.1 E225.20607
G0 F9000 X59.2 Y152.1
G1 F1125 X59.2 Y82.9 E232.93945
G0 F9000 X60.8 Y82.9
G1 F1125 X60.8 Y152.1 E240.67283
G0 F9000 X62.4 Y152.1
G1 F1125 X62.4 Y82.9 E248.40621
G0 F9000 X64 Y82.9
G1 F1125 X64 Y152.1 E256.13959
G0 F9000 X65.6 Y152.1
G1 F1125 X65.6 Y82.9 E263.87297
G0 F9000 X67.2 Y82.9
G1 F1125 X67.2 Y152.1 E271.60635
G0 F9000 X68.8 Y152.1
G1 F1125 X68.8 Y82.9 E279.33973
G0 F9000 X70.4 Y82.9
G1 F1125 X70.4 Y152.1 E287.07311
G0 F9000 X72 Y152.1
G1 F1125 X72 Y82.9 E294.80649
G0 F9000 X73.6 Y82.9
G1 F1125 X73.6 Y152.1 E302.53987
G0 F9000 X75.2 Y152.1
G1 F1125 X75.2 Y82.9 E310.27326
G0 F9000 X76.8 Y82.9
G1 F1125 X76.8 Y152.1 E318.00664
G0 F9000 X78.4 Y152.1
G1 F1125 X78.4 Y82.9 E325.74002
G0 F9000 X80 Y82.9
G1 F1125 X80 Y152.1 E333.4734
G0 F9000 X81.6 Y152.1
G1 F1125 X81.6 Y82.9 E341.20678
G0 F9000 X83.2 Y82.9
G1 F1125 X83.2 Y152.1 E348.94016
G0 F9000 X84.8 Y152.1
G1 F1125 X84.8 Y82.9 E356.67354
G0 F9000 X86.4 Y82.9
G1 F1125 X86.4 Y152.1 E364.40692
G0 F9000 X88 Y152.1
G1 F1125 X88 Y82.9 E372.1403
G0 F9000 X89.6 Y82.9
G1 F1125 X89.6 Y152.1 E379.87368
G0 F9000 X91.2 Y152.1
G1 F1125 X91.2 Y82.9 E387.60706
G0 F9000 X92.8 Y82.9
G1 F1125 X92.8 Y152.1 E395.34044
G0 F9000 X94.4 Y152.1
G1 F1125 X94.4 Y82.9 E403.07382
G0 F9000 X96 Y82.9
G1 F1125 X96 Y152.1 E410.8072
G0 F9000 X97.6 Y152.1
G1 F1125 X97.6 Y82.9 E418.54058
G0 F9000 X99.2 Y82.9
G1 F1125 X99.2 Y152.1 E426.27396
G0 F9000 X100.8 Y152.1
G1 F1125 X100.8 Y82.9 E434.00734
G0 F9000 X102.4 Y82.9
G1 F1125 X102.4 Y152.1 E441.74072
G0 F9000 X104 Y152.1
G1 F1125 X104 Y82.9 E449.4741
G0 F9000 X105.6 Y82.9
G1 F1125 X105.6 Y152.1 E457.20749
G0 F9000 X107.2 Y152.1
G1 F1125 X107.2 Y82.9 E464.94087
G0 F9000 X108.8 Y82.9
G1 F1125 X108.8 Y152.1 E472.67425
G0 F9000 X110.4 Y152.1
G1 F1125 X110.4 Y82.9 E480.40763
G0 F9000 X112 Y82.9
G1 F1125 X112 Y152.1 E488.14101
G0 F9000 X113.6 Y152.1
G1 F1125 X113.6 Y82.9 E495.87439
G0 F9000 X115.2 Y82.9
G1 F1125 X115.2 Y152.1 E503.60777
G0 F9000 X116.8 Y152.1
G1 F1125 X116.8 Y82.9 E511.34115
G0 F9000 X118.4 Y82.9
G1 F1125 X118.4 Y152.1 E519.07453
G0 F9000 X120 Y152.1
G1 F1125 X120 Y82.9 E526.80791
G0 F9000 X121.6 Y82.9
G1 F1125 X121.6 Y152.1 E534.54129
G0 F9000 X123.2 Y152.1
G1 F1125 X123.2 Y82.9 E542.27467
G0 F9000 X124.8 Y82.9
G1 F1125 X124.8 Y152.1 E550.00805
G0 F9000 X126.4 Y152.1
G1 F1125 X126.4 Y82.9 E557.74143
G0 F9000 X128 Y82.9
G1 F1125 X128 Y152.1 E565.47481
G0 F9000 X129.6 Y152.1
G1 F1125 X129.6 Y82.9 E573.20819
G0 F9000 X131.2 Y82.9
G1 F1125 X131.2 Y152.1 E580.94157
G0 F9000 X132.8 Y152.1
G1 F1125 X132.8 Y82.9 E588.67495
G0 F9000 X134.4 Y82.9
G1 F1125 X134.4 Y152.1 E596.40833
G0 F9000 X136 Y152.1
G1 F1125 X136 Y82.9 E604.14171
G0 F9000 X137.6 Y82.9
G1 F1125 X137.6 Y152.1 E611.8751
G0 F9000 X139.2 Y152.1
G1 F1125 X139.2 Y82.9 E619.60848
G0 F9000 X140.8 Y82.9
G1 F1125 X140.8 Y152.1 E627.34186
G0 F9000 X142.4 Y152.1
G1 F1125 X142.4 Y82.9 E635.07524
G0 F9000 X144 Y82.9
G1 F1125 X144 Y152.1 E642.80862
G0 F9000 X145.6 Y152.1
G1 F1125 X145.6 Y82.9 E650.542
G0 F9000 X147.2 Y82.9
G1 F1125 X147.2 Y152.1 E658.27538
G0 F9000 X148.8 Y152.1
G1 F1125 X148.8 Y82.9 E666.00876
G0 F9000 X150.4 Y82.9
G1 F1125 X150.4 Y152.1 E673.74214
G0 F9000 X152 Y152.1
G1 F1125 X152 Y82.9 E681.47552
G0 F9000 X153.6 Y82.9
G1 F1125 X153.6 Y152.1 E689.2089
G0 F9000 X155.2 Y152.1
G1 F1125 X155.2 Y82.9 E696.94228
G0 F9000 X156.8 Y82.9
G1 F1125 X156.8 Y152.1 E704.67566
G0 F9000 X158.4 Y152.1
G1 F1125 X158.4 Y82.9 E712.40904
G0 F9000 X160 Y82.9
G1 F1125 X160 Y152.1 E720.14242
G0 F9000 X161.6 Y152.1
G1 F1125 X161.6 Y82.9 E727.8758
G0 F9000 X163.2 Y82.9
G1 F1125 X163.2 Y152.1 E735.60918
G0 F9000 X164.8 Y152.1
G1 F1125 X164.8 Y82.9 E743.34256
G0 F9000 X166.4 Y82.9
G1 F1125 X166.4 Y152.1 E751.07594
G0 F9000 X168 Y152.1
G1 F1125 X168 Y82.9 E758.80933
G0 F9000 X169.6 Y82.9
G1 F1125 X169.6 Y152.1 E766.54271
